!! 00000] TT[00
!! NN
!!!OTL: Nong mang shier yue
!!!ARE: Asia, China,ÿNingxia, Yinchuan
!! Ethnic Group: Han
!! I, 167
!!!SCT: C0044
!!!YEM: Copyright 1995, estate of Helmut Schaffrath.
**kern
*ICvox
*Ivox
*M2/4
*k[b-]
*F:
{4f
8d
8c
=1
4f
8d
8c
=2
8cc
4cc
8ff
=3
8ff
8dd
4cc}
=4
{8ff
4ff
8cc
=5
8dd
8cc
8b-
8g
=6
8f
4f
8a
=7
2g}
=8
{8g
8b-
4cc
=9
8cc
8ff
4cc
=10
8b-
8g
4b-
=11
8g
8f
8e
8c}
=12
{8cc
8cc
8cc
8f
=13
8g
8cc
8f
8d
=14
8c
4c
8f
=15
2c}
==
!!!AGN: Xiaodiao, Sige langong diao. Xin minge
!! neues Volkslied, alte Melodie
!!!ONB: ESAC (Essen Associative Code) Database: CHINA
!!!AMT: simple duple
!!!AIN: vox
!!!EED: Helmut Schaffrath
!!!EEV: 1.0
*-
